packages/ffe-icons/icons/open/300/sm/roller_skating.svg

<svg xmlns="http://www.w3.org/2000/svg" height="20" viewBox="0 -960 960 960" width="20"><path d="M178.001-386.308v-451.384q0-26.527 18.89-45.417t45.417-18.89h211.384q26.527 0 45.417 18.89t18.89 45.417V-715q0 26.795 16.731 48.629 16.731 21.833 43.577 29.987l105 29q43.787 13.12 71.24 46.449 27.452 33.329 27.452 80.935v93.692q0 26.527-18.89 45.417t-45.417 18.89H242.308q-26.527 0-45.417-18.89t-18.89-45.417Zm64.307 12.309h475.384q5.385 0 8.847-3.462 3.462-3.462 3.462-8.847V-480q0-26.939-16.923-47.393-16.924-20.454-43.385-29.223l-105-29q-26.693-7.231-49.462-24.423-22.769-17.192-32.615-40.269H383.9q-8.977 0-15.284-6.508-6.308-6.507-6.308-15.184t6.507-15.184q6.508-6.508 15.185-6.508h81.616v-25.346q0-13.731.385-27.27H384q-8.677 0-15.185-6.508-6.507-6.507-6.507-15.184t6.507-15.184q6.508-6.508 15.185-6.508h82.001v-48q0-5.385-3.462-8.847-3.462-3.462-8.847-3.462H242.308q-5.385 0-8.847 3.462-3.462 3.462-3.462 8.847v451.384q0 5.385 3.462 8.847 3.462 3.462 8.847 3.462Zm-12.309 0ZM204.045-58.001q-40.814 0-69.429-28.57-28.615-28.57-28.615-69.384t28.57-69.429q28.57-28.615 69.384-28.615t69.429 28.57q28.615 28.57 28.615 69.384t-28.57 69.43q-28.57 28.614-69.384 28.614Zm-.256-51.998q19.057 0 32.635-13.367 13.577-13.367 13.577-32.423 0-19.057-13.367-32.635-13.367-13.577-32.423-13.577-19.057 0-32.635 13.367-13.577 13.367-13.577 32.423 0 19.057 13.367 32.635 13.367 13.577 32.423 13.577Zm552.256 51.998q-40.814 0-69.429-28.57-28.615-28.57-28.615-69.384t28.57-69.429q28.57-28.615 69.384-28.615t69.429 28.57q28.615 28.57 28.615 69.384t-28.57 69.43q-28.57 28.614-69.384 28.614Zm-.256-51.998q19.057 0 32.635-13.367 13.577-13.367 13.577-32.423 0-19.057-13.367-32.635-13.366-13.577-32.423-13.577-19.057 0-32.635 13.367-13.577 13.367-13.577 32.423 0 19.057 13.367 32.635 13.366 13.577 32.423 13.577ZM480.045-58.001q-40.814 0-69.429-28.57-28.615-28.57-28.615-69.384t28.57-69.429q28.57-28.615 69.384-28.615t69.429 28.57q28.615 28.57 28.615 69.384t-28.57 69.43q-28.57 28.614-69.384 28.614Zm-.256-51.998q19.057 0 32.635-13.367 13.577-13.367 13.577-32.423 0-19.057-13.367-32.635-13.367-13.577-32.423-13.577-19.057 0-32.635 13.367-13.577 13.367-13.577 32.423 0 19.057 13.367 32.635 13.367 13.577 32.423 13.577ZM204-156Zm276 0Zm276 0Z"/></svg>

<svg xmlns="http://www.w3.org/2000/svg" height="20" viewBox="0 -960 960 960" width="20"><path d="M178-386.31v-451.38q0-26.53 18.89-45.42T242.31-902h211.38q26.53 0 45.42 18.89T518-837.69V-715q0 26.8 16.73 48.63 16.73 21.83 43.58 29.99l105 29q43.78 13.12 71.24 46.45Q782-527.61 782-480v93.69q0 26.53-18.89 45.42T717.69-322H242.31q-26.53 0-45.42-18.89T178-386.31ZM242.31-374h475.38q5.39 0 8.85-3.46t3.46-8.85V-480q0-26.94-16.92-47.39-16.93-20.46-43.39-29.23l-105-29q-26.69-7.23-49.46-24.42t-32.61-40.27H383.9q-8.98 0-15.28-6.51-6.31-6.5-6.31-15.18t6.51-15.18q6.5-6.51 15.18-6.51h81.62v-25.35q0-13.73.38-27.27h-82q-8.68 0-15.18-6.51-6.51-6.5-6.51-15.18t6.51-15.18q6.5-6.51 15.18-6.51h82v-48q0-5.39-3.46-8.85t-8.85-3.46H242.31q-5.39 0-8.85 3.46t-3.46 8.85v451.38q0 5.39 3.46 8.85t8.85 3.46ZM230-374ZM204.05-58q-40.82 0-69.43-28.57Q106-115.14 106-155.95q0-40.82 28.57-69.43Q163.14-254 203.95-254q40.82 0 69.43 28.57Q302-196.86 302-156.05q0 40.82-28.57 69.43Q244.86-58 204.05-58Zm-.26-52q19.06 0 32.63-13.37Q250-136.73 250-155.79q0-19.06-13.37-32.63Q223.27-202 204.21-202q-19.06 0-32.63 13.37Q158-175.27 158-156.21q0 19.06 13.37 32.63Q184.73-110 203.79-110Zm552.26 52q-40.82 0-69.43-28.57Q658-115.14 658-155.95q0-40.82 28.57-69.43Q715.14-254 755.95-254q40.82 0 69.43 28.57Q854-196.86 854-156.05q0 40.82-28.57 69.43Q796.86-58 756.05-58Zm-.26-52q19.06 0 32.63-13.37Q802-136.73 802-155.79q0-19.06-13.37-32.63Q775.27-202 756.21-202q-19.06 0-32.63 13.37Q710-175.27 710-156.21q0 19.06 13.37 32.63Q736.73-110 755.79-110ZM480.05-58q-40.82 0-69.43-28.57Q382-115.14 382-155.95q0-40.82 28.57-69.43Q439.14-254 479.95-254q40.82 0 69.43 28.57Q578-196.86 578-156.05q0 40.82-28.57 69.43Q520.86-58 480.05-58Zm-.26-52q19.06 0 32.63-13.37Q526-136.73 526-155.79q0-19.06-13.37-32.63Q499.27-202 480.21-202q-19.06 0-32.63 13.37Q434-175.27 434-156.21q0 19.06 13.37 32.63Q460.73-110 479.79-110ZM204-156Zm276 0Zm276 0Z"/></svg>
